16x16/actions/text_outer_style.svg

<svg xmlns="http://www.w3.org/2000/svg" width="16" height="16"><defs><style id="current-color-scheme" type="text/css"></style></defs><path style="fill:currentColor;color:#323a41" d="M8 8v1h2v4h1V9h2V8zM0 1v2h4v8h2V3h4V1zm12-1v1h3v14H1V5H0v11h16V0z"/></svg>

<svg xmlns="http://www.w3.org/2000/svg" width="16" height="16" version="1.1">
 <defs>
  <style id="current-color-scheme" type="text/css">
   .ColorScheme-Text { color:#323a41; } .ColorScheme-Highlight { color:#4285f4; } .ColorScheme-NeutralText { color:#ff9800; } .ColorScheme-PositiveText { color:#4caf50; } .ColorScheme-NegativeText { color:#f44336; }
  </style>
 </defs>
 <path style="fill:currentColor" class="ColorScheme-Text" d="M 8,8 V 9 H 10 V 13 H 11 V 9 H 13 V 8 Z M 0,1 V 3 H 4 V 11 H 6 V 3 H 10 V 1 Z M 12,0 V 1 H 15 V 15 H 1 V 5 H 0 V 16 H 16 V 0 Z"/>
</svg>
